svg/300/rounded/chat_error-fill.svg

<svg xmlns="http://www.w3.org/2000/svg" width="48" height="48" viewBox="0 -960 960 960"><path d="m241.539-260.001-92.461 92.46q-13.615 13.615-31.346 6.5t-17.731-26.731v-614.534q0-23.616 17.039-40.654 17.038-17.039 40.654-17.039h644.612q23.616 0 40.654 17.039 17.039 17.038 17.039 40.654v484.612q0 23.616-17.039 40.654-17.038 17.039-40.654 17.039H241.539Zm238.461-268L568.385-440q6.692 6.692 15.807 6.499 9.115-.192 15.808-6.884 6.692-6.692 6.692-15.615T600-471.615L511.999-560 600-648.385q6.692-6.692 6.499-15.807-.192-9.115-6.884-15.808-6.692-6.692-15.615-6.692T568.385-680L480-591.999 391.615-680q-6.692-6.692-15.807-6.499-9.115.192-15.808 6.884-6.692 6.692-6.692 15.615T360-648.385L448.001-560 360-471.615q-6.692 6.692-6.499 15.807.192 9.115 6.884 15.808 6.692 6.692 15.615 6.692T391.615-440L480-528.001Z"/></svg>

<svg xmlns="http://www.w3.org/2000/svg" width="48" height="48" viewBox="0 -960 960 960"><path d="m241.54-260-92.46 92.46q-13.62 13.61-31.35 6.5Q100-168.16 100-187.77v-614.54q0-23.61 17.04-40.65T157.69-860h644.62q23.61 0 40.65 17.04T860-802.31v484.62q0 23.61-17.04 40.65T802.31-260H241.54ZM480-528l88.39 88q6.69 6.69 15.8 6.5 9.12-.19 15.81-6.89 6.69-6.69 6.69-15.61 0-8.92-6.69-15.61L512-560l88-88.39q6.69-6.69 6.5-15.8-.19-9.12-6.89-15.81-6.69-6.69-15.61-6.69-8.92 0-15.61 6.69L480-592l-88.39-88q-6.69-6.69-15.8-6.5-9.12.19-15.81 6.89-6.69 6.69-6.69 15.61 0 8.92 6.69 15.61L448-560l-88 88.39q-6.69 6.69-6.5 15.8.19 9.12 6.89 15.81 6.69 6.69 15.61 6.69 8.92 0 15.61-6.69L480-528Z"/></svg>
